src/standard/people/instructor.svg

<svg xmlns="http://www.w3.org/2000/svg" viewBox="0 0 36 36">
  <path d="M13.87 24.29a3.88 3.88 0 1 0-4.74 0A7.12 7.12 0 0 0 4.38 31a.62.62 0 0 0 .62.62h13a.62.62 0 0 0 .62-.62 7.12 7.12 0 0 0-4.75-6.71Zm-5-3a2.62 2.62 0 1 1 2.62 2.63 2.62 2.62 0 0 1-2.61-2.67Zm-3.21 9.09a5.87 5.87 0 0 1 11.68 0Z"/>
  <path d="M31 4.38H12a.62.62 0 0 0-.62.62v10a.62.62 0 0 0 1.24 0V5.62h17.76v17.76H18a.62.62 0 0 0 0 1.24h13a.62.62 0 0 0 .62-.62V5a.62.62 0 0 0-.62-.62Z"/>
</svg>

<svg id="b80baec9-a9e6-491c-a762-592452e659c5" data-name="Icon" xmlns="http://www.w3.org/2000/svg" viewBox="0 0 36 36">
  <g>
    <path d="M13.87,24.29a3.88,3.88,0,1,0-4.74,0A7.12,7.12,0,0,0,4.38,31a.62.62,0,0,0,.62.62H18a.62.62,0,0,0,.62-.62A7.12,7.12,0,0,0,13.87,24.29Zm-5-3a2.62,2.62,0,1,1,2.62,2.63A2.62,2.62,0,0,1,8.88,21.25ZM5.66,30.38a5.87,5.87,0,0,1,11.68,0Z"/>
    <path d="M31,4.38H12a.62.62,0,0,0-.62.62V15a.62.62,0,0,0,1.24,0V5.62H30.38V23.38H18a.62.62,0,0,0,0,1.24H31a.62.62,0,0,0,.62-.62V5A.62.62,0,0,0,31,4.38Z"/>
  </g>
</svg>
